X:53
T:Four Seasons THO4.053, The
M:6/8
L:1/8
Z:vmp. Peter Dunk 2010/11.from a transcription by Fynn Titford-Mock 2007
B:Thompson's Compleat Collection of 200 Favourite Country Dances Volume IV.
Q:3/8=100
K:D
a>ba fdf|agf e2 A|d2 A e2 A|agf e3|\
a>ba fdf|agf e2 A|d2 A e2 A|fge d3 :|
[FA,]EF [EA,]FG|FGE F2 A|FEF EFG|FGE D3::a>ba fdf|agf e2 A|
d2 A e2 A|agf e3|a>ba fdf|agf e2 A|d2 A e2 A|fge d3:|
|:ABA d3|ABG F3|ABA GAF|EFG F2 D|ABA d3|ABG F2 D|FGA  EFG|FGE D3:|

